jsapp/svg-icons/block.svg

<svg height="40" viewBox="0 0 40 40" width="40" xmlns="http://www.w3.org/2000/svg"><path d="m23.414 10 4.586 4.586v13.414c0 1.103-.897 2-2 2h-12c-1.103 0-2-.897-2-2v-16c0-1.102.897-2 2-2zm2.587 18-.001-12h-4v-4h-8v16zm-9.2107702-2v-8.53125h3.0644531c.5273464 0 .9990213.0478511 1.4150391.1435547.4160177.0957036.7685532.2412099 1.0576171.4365234.289064.1953135.5097649.4404282.6621094.7353516.1523445.2949233.2285156.6415996.2285156 1.0400391 0 .1953134-.0214841.3837881-.0644531.5654296-.0429689.1816416-.1123042.3525383-.2080078.5126954-.0957036.160157-.2197258.3037103-.3720703.430664-.1523445.1269538-.3378895.2314449-.5566406.3134766.2539075.0664066.4687491.1621087.6445312.2871094.1757821.1250006.3183588.2695304.4277344.4335937.1093755.1640633.1884763.3408194.2373047.5302734.0488283.1894541.0732422.381835.0732422.5771485 0 .8437542-.2695286 1.4755838-.8085938 1.8955078s-1.3378853.6298828-2.3964844.6298828zm2.0566406-3.6269531v2.0449219h1.3476562c.2070323 0 .3837884-.0253904.5302735-.0761719s.2656245-.1201168.3574219-.2080078c.0917973-.0878911.1591794-.1904291.2021484-.3076172s.0644531-.24414.0644531-.3808594c0-.1640633-.019531-.3124993-.0585937-.4453125s-.1015621-.2451167-.1875-.3369141c-.085938-.0917973-.197265-.1630856-.3339844-.2138671-.1367194-.0507816-.3027334-.0761719-.4980469-.0761719zm0-1.3476563h1.0722656c.449221-.0039062.7695303-.0859367.9609375-.2460937.1914072-.1601571.2871094-.3964828.2871094-.7089844 0-.3593768-.1035146-.6181633-.3105469-.7763672s-.5410133-.2373047-1.0019531-.2373047h-1.0078125z" fill-rule="evenodd"/></svg>

<?xml version="1.0" encoding="UTF-8"?>
<svg width="40px" height="40px" viewBox="0 0 40 40" version="1.1" xmlns="http://www.w3.org/2000/svg" xmlns:xlink="http://www.w3.org/1999/xlink">
    <!-- Generator: Sketch 50.2 (55047) - http://www.bohemiancoding.com/sketch -->
    <title>Icons/block</title>
    <desc>Created with Sketch.</desc>
    <defs>
        <path d="M23.414,10 L28,14.586 L28,28 C28,29.103 27.103,30 26,30 L14,30 C12.897,30 12,29.103 12,28 L12,12 C12,10.898 12.897,10 14,10 L23.414,10 Z M26.001,28 L26,16 L22,16 L22,12 L14,12 L14,28 L26.001,28 Z M16.7902298,26 L16.7902298,17.46875 L19.8546829,17.46875 C20.3820293,17.46875 20.8537042,17.5166011 21.269722,17.6123047 C21.6857397,17.7080083 22.0382752,17.8535146 22.3273391,18.0488281 C22.6164031,18.2441416 22.837104,18.4892563 22.9894485,18.7841797 C23.141793,19.079103 23.2179641,19.4257793 23.2179641,19.8242188 C23.2179641,20.0195322 23.19648,20.2080069 23.153511,20.3896484 C23.1105421,20.57129 23.0412068,20.7421867 22.9455032,20.9023438 C22.8497996,21.0625008 22.7257774,21.2060541 22.5734329,21.3330078 C22.4210884,21.4599616 22.2355434,21.5644527 22.0167923,21.6464844 C22.2706998,21.712891 22.4855414,21.8085931 22.6613235,21.9335938 C22.8371056,22.0585944 22.9796823,22.2031242 23.0890579,22.3671875 C23.1984334,22.5312508 23.2775342,22.7080069 23.3263626,22.8974609 C23.3751909,23.086915 23.3996048,23.2792959 23.3996048,23.4746094 C23.3996048,24.3183636 23.1300762,24.9501932 22.591011,25.3701172 C22.0519458,25.7900412 21.2531257,26 20.1945266,26 L16.7902298,26 Z M18.8468704,22.3730469 L18.8468704,24.4179688 L20.1945266,24.4179688 C20.4015589,24.4179688 20.578315,24.3925784 20.7248001,24.3417969 C20.8712852,24.2910154 20.9904246,24.2216801 21.082222,24.1337891 C21.1740193,24.045898 21.2414014,23.94336 21.2843704,23.8261719 C21.3273394,23.7089838 21.3488235,23.5820319 21.3488235,23.4453125 C21.3488235,23.2812492 21.3292925,23.1328132 21.2902298,23 C21.2511671,22.8671868 21.1886677,22.7548833 21.1027298,22.6630859 C21.0167918,22.5712886 20.9054648,22.5000003 20.7687454,22.4492188 C20.632026,22.3984372 20.466012,22.3730469 20.2706985,22.3730469 L18.8468704,22.3730469 Z M18.8468704,21.0253906 L19.919136,21.0253906 C20.368357,21.0214844 20.6886663,20.9394539 20.8800735,20.7792969 C21.0714807,20.6191398 21.1671829,20.3828141 21.1671829,20.0703125 C21.1671829,19.7109357 21.0636683,19.4521492 20.856636,19.2939453 C20.6496037,19.1357414 20.3156227,19.0566406 19.8546829,19.0566406 L18.8468704,19.0566406 L18.8468704,21.0253906 Z" id="path-1"></path>
    </defs>
    <g id="Icons/block" stroke="none" stroke-width="1" fill="none" fill-rule="evenodd">
        <mask id="mask-2" fill="white">
            <use xlink:href="#path-1"></use>
        </mask>
        <use id="Mask" fill="#000000" xlink:href="#path-1"></use>
    </g>
</svg>
